src/components/icon/assets/close.svg

<?xml version="1.0" encoding="UTF-8"?>
<svg width="24px" height="24px" viewBox="0 0 24 24" version="1.1" xmlns="http://www.w3.org/2000/svg" xmlns:xlink="http://www.w3.org/1999/xlink">
    <!-- Generator: Sketch 60 (88103) - https://sketch.com -->
    <title>Close</title>
    <desc>Created with Sketch.</desc>
    <g id="Close" stroke="none" stroke-width="1" fill="none" fill-rule="evenodd">
        <path d="M19.1522582,4 L19.9764323,4.82417419 L12.787,12.013 L20,19.1522582 L19.1758258,19.9764323 L11.987,12.86 L4.84774185,20 L4.02356766,19.1758258 L11.175,12.023 L4,4.84774185 L4.82417419,4.02356766 L11.976,11.175 L19.1522582,4 Z" id="Combined-Shape" fill="#000000"></path>
    </g>
</svg>

<svg xmlns="http://www.w3.org/2000/svg" viewBox="0 0 24 24"><path d="M19.152 4l.824.824-7.189 7.189L20 19.153l-.824.823-7.189-7.116L4.847 20l-.823-.824 7.151-7.153L4 4.848l.824-.824 7.152 7.151L19.152 4z" fill-rule="evenodd"/></svg>
